X: 86
T:Tralee Gaol
% Nottingham Music Database
S:Ireland, via PR
M:2/4
L:1/4
K:G
"Am"e/2A/2 A/2B/4d/4|"Am"e3/4d/4 "G"B/2d/2|"Am"e/2A/2 A/2B/4A/4|\
"Em"G3/4A/4 B/2d/2|"Am"e/2A/2 A/2B/4d/4|"Am"e3/4d/4 "G"B/2d/2|"Em"e/2d/2 g/2B/2|"Am"A A::
"Am"e/2a/2 a/2g/4a/4|"Em"b3/4a/4 g/2e/2|"G"d/2B/2 g/2B/2|\
"G"d/4c/4B/4A/4 "Em"G/2E/2|"Am"e/2a/2 a/2g/4a/4|"Em"b3/4a/4 g/2e/2|"Em"e/2d/2 g/2B/2|"Am"A A:|<end>
<start>
